X:057
T:Cochin Chine
M:2/2
L:1/8
K:G
d2 d2 BGBd | BGBd dc A2 | d2 d2 BGBd | dcBA G4 :||
B2 B2 GE E2 | c2 c2 AF F2 | d2 d2 BGBd | dcBA G4 :||
